N0010 (Filename: cadplexinfx.tap)
N0020 (Post processor: Mach3.scpost)
N0030 (Date:09.04.2019 Time:17:04:16)
N0040 G21 (Units: Metric)
N0050 G40 G90 G91.1
N0060 F1
N0070 (Part: cadplexinfx)
N0080 (Operation: Spiral pocket, INNEN, T1: Mill/router, 3 mm diameter, 8 mm Deep)
N0090 S1000 (Mill/router, 3 mm diameter)
N0100 T1 M06
N0110  G43 H1
N0120 G00 Z20.0000
N0130 S1000 M03
N0140 X37.4000 Y32.6000
N0150 G01 Z-1.500 F300.0
N0160 X32.6000 F400.0
N0170 Y57.4000
N0180 X37.4000
N0190 Y32.6000
N0200 X40.2500 Y29.7500
N0210 X29.7500
N0220 Y60.2500
N0230 X40.2500
N0240 Y29.7500
N0250 X43.1000 Y26.9000
N0260 X26.9000
N0270 Y63.1000
N0280 X43.1000
N0290 Y26.9000
N0300 X45.9500 Y24.0500
N0310 X24.0500
N0320 Y65.9500
N0330 X45.9500
N0340 Y24.0500
N0350 X48.8000 Y21.2000
N0360 X21.2000
N0370 Y68.8000
N0380 X48.8000
N0390 Y21.2000
N0400 X51.6500 Y18.3500
N0410 X18.3500
N0420 Y71.6500
N0430 X51.6500
N0440 Y18.3500
N0450 X54.5000 Y15.5000
N0460 X15.5000
N0470 Y74.5000
N0480 X54.5000
N0490 Y15.5000
N0500 G00 Z20.0000
N0510 X37.4000 Y32.6000
N0520 Z18.5000
N0530 G01 Z-3.000 F300.0
N0540 X32.6000 F400.0
N0550 Y57.4000
N0560 X37.4000
N0570 Y32.6000
N0580 X40.2500 Y29.7500
N0590 X29.7500
N0600 Y60.2500
N0610 X40.2500
N0620 Y29.7500
N0630 X43.1000 Y26.9000
N0640 X26.9000
N0650 Y63.1000
N0660 X43.1000
N0670 Y26.9000
N0680 X45.9500 Y24.0500
N0690 X24.0500
N0700 Y65.9500
N0710 X45.9500
N0720 Y24.0500
N0730 X48.8000 Y21.2000
N0740 X21.2000
N0750 Y68.8000
N0760 X48.8000
N0770 Y21.2000
N0780 X51.6500 Y18.3500
N0790 X18.3500
N0800 Y71.6500
N0810 X51.6500
N0820 Y18.3500
N0830 X54.5000 Y15.5000
N0840 X15.5000
N0850 Y74.5000
N0860 X54.5000
N0870 Y15.5000
N0880 G00 Z20.0000
N0890 X37.4000 Y32.6000
N0900 Z17.0000
N0910 G01 Z-4.500 F300.0
N0920 X32.6000 F400.0
N0930 Y57.4000
N0940 X37.4000
N0950 Y32.6000
N0960 X40.2500 Y29.7500
N0970 X29.7500
N0980 Y60.2500
N0990 X40.2500
N1000 Y29.7500
N1010 X43.1000 Y26.9000
N1020 X26.9000
N1030 Y63.1000
N1040 X43.1000
N1050 Y26.9000
N1060 X45.9500 Y24.0500
N1070 X24.0500
N1080 Y65.9500
N1090 X45.9500
N1100 Y24.0500
N1110 X48.8000 Y21.2000
N1120 X21.2000
N1130 Y68.8000
N1140 X48.8000
N1150 Y21.2000
N1160 X51.6500 Y18.3500
N1170 X18.3500
N1180 Y71.6500
N1190 X51.6500
N1200 Y18.3500
N1210 X54.5000 Y15.5000
N1220 X15.5000
N1230 Y74.5000
N1240 X54.5000
N1250 Y15.5000
N1260 G00 Z20.0000
N1270 X37.4000 Y32.6000
N1280 Z15.5000
N1290 G01 Z-6.000 F300.0
N1300 X32.6000 F400.0
N1310 Y57.4000
N1320 X37.4000
N1330 Y32.6000
N1340 X40.2500 Y29.7500
N1350 X29.7500
N1360 Y60.2500
N1370 X40.2500
N1380 Y29.7500
N1390 X43.1000 Y26.9000
N1400 X26.9000
N1410 Y63.1000
N1420 X43.1000
N1430 Y26.9000
N1440 X45.9500 Y24.0500
N1450 X24.0500
N1460 Y65.9500
N1470 X45.9500
N1480 Y24.0500
N1490 X48.8000 Y21.2000
N1500 X21.2000
N1510 Y68.8000
N1520 X48.8000
N1530 Y21.2000
N1540 X51.6500 Y18.3500
N1550 X18.3500
N1560 Y71.6500
N1570 X51.6500
N1580 Y18.3500
N1590 X54.5000 Y15.5000
N1600 X15.5000
N1610 Y74.5000
N1620 X54.5000
N1630 Y15.5000
N1640 G00 Z20.0000
N1650 X37.4000 Y32.6000
N1660 Z14.0000
N1670 G01 Z-7.500 F300.0
N1680 X32.6000 F400.0
N1690 Y57.4000
N1700 X37.4000
N1710 Y32.6000
N1720 X40.2500 Y29.7500
N1730 X29.7500
N1740 Y60.2500
N1750 X40.2500
N1760 Y29.7500
N1770 X43.1000 Y26.9000
N1780 X26.9000
N1790 Y63.1000
N1800 X43.1000
N1810 Y26.9000
N1820 X45.9500 Y24.0500
N1830 X24.0500
N1840 Y65.9500
N1850 X45.9500
N1860 Y24.0500
N1870 X48.8000 Y21.2000
N1880 X21.2000
N1890 Y68.8000
N1900 X48.8000
N1910 Y21.2000
N1920 X51.6500 Y18.3500
N1930 X18.3500
N1940 Y71.6500
N1950 X51.6500
N1960 Y18.3500
N1970 X54.5000 Y15.5000
N1980 X15.5000
N1990 Y74.5000
N2000 X54.5000
N2010 Y15.5000
N2020 G00 Z20.0000
N2030 X37.4000 Y32.6000
N2040 Z12.5000
N2050 G01 Z-8.000 F300.0
N2060 X32.6000 F400.0
N2070 Y57.4000
N2080 X37.4000
N2090 Y32.6000
N2100 X40.2500 Y29.7500
N2110 X29.7500
N2120 Y60.2500
N2130 X40.2500
N2140 Y29.7500
N2150 X43.1000 Y26.9000
N2160 X26.9000
N2170 Y63.1000
N2180 X43.1000
N2190 Y26.9000
N2200 X45.9500 Y24.0500
N2210 X24.0500
N2220 Y65.9500
N2230 X45.9500
N2240 Y24.0500
N2250 X48.8000 Y21.2000
N2260 X21.2000
N2270 Y68.8000
N2280 X48.8000
N2290 Y21.2000
N2300 X51.6500 Y18.3500
N2310 X18.3500
N2320 Y71.6500
N2330 X51.6500
N2340 Y18.3500
N2350 X54.5000 Y15.5000
N2360 X15.5000
N2370 Y74.5000
N2380 X54.5000
N2390 Y15.5000
N2400 (Operation: Inside Offset, 4MMKREIS, T1: Mill/router, 3 mm diameter, 10 mm Deep)
N2410 G00 Z20.0000
N2420 X9.0000 Y80.5000
N2430 G01 Z-1.500 F100.0
N2440 G02 X9.0000 Y80.5000 Z-1.5000 I0.0000 J0.5000 F400.0
N2450 G01 Z-3.000 F100.0
N2460 G02 X9.0000 Y80.5000 Z-3.0000 I0.0000 J0.5000 F400.0
N2470 G01 Z-4.500 F100.0
N2480 G02 X9.0000 Y80.5000 Z-4.5000 I0.0000 J0.5000 F400.0
N2490 G01 Z-6.000 F100.0
N2500 G02 X9.0000 Y80.5000 Z-6.0000 I0.0000 J0.5000 F400.0
N2510 G01 Z-7.500 F100.0
N2520 G02 X9.0000 Y80.5000 Z-7.5000 I0.0000 J0.5000 F400.0
N2530 G01 Z-9.000 F100.0
N2540 G02 X9.0000 Y80.5000 Z-9.0000 I0.0000 J0.5000 F400.0
N2550 G01 Z-10.000 F100.0
N2560 G02 X9.0000 Y80.5000 Z-10.0000 I0.0000 J0.5000 F400.0
N2570 G00 Z20.0000
N2580 X61.0000
N2590 G01 Z-1.500 F100.0
N2600 G02 X61.0000 Y80.5000 Z-1.5000 I0.0000 J0.5000 F400.0
N2610 G01 Z-3.000 F100.0
N2620 G02 X61.0000 Y80.5000 Z-3.0000 I0.0000 J0.5000 F400.0
N2630 G01 Z-4.500 F100.0
N2640 G02 X61.0000 Y80.5000 Z-4.5000 I0.0000 J0.5000 F400.0
N2650 G01 Z-6.000 F100.0
N2660 G02 X61.0000 Y80.5000 Z-6.0000 I0.0000 J0.5000 F400.0
N2670 G01 Z-7.500 F100.0
N2680 G02 X61.0000 Y80.5000 Z-7.5000 I0.0000 J0.5000 F400.0
N2690 G01 Z-9.000 F100.0
N2700 G02 X61.0000 Y80.5000 Z-9.0000 I0.0000 J0.5000 F400.0
N2710 G01 Z-10.000 F100.0
N2720 G02 X61.0000 Y80.5000 Z-10.0000 I0.0000 J0.5000 F400.0
N2730 G00 Z20.0000
N2740 Y8.5000
N2750 G01 Z-1.500 F100.0
N2760 G02 X61.0000 Y8.5000 Z-1.5000 I0.0000 J0.5000 F400.0
N2770 G01 Z-3.000 F100.0
N2780 G02 X61.0000 Y8.5000 Z-3.0000 I0.0000 J0.5000 F400.0
N2790 G01 Z-4.500 F100.0
N2800 G02 X61.0000 Y8.5000 Z-4.5000 I0.0000 J0.5000 F400.0
N2810 G01 Z-6.000 F100.0
N2820 G02 X61.0000 Y8.5000 Z-6.0000 I0.0000 J0.5000 F400.0
N2830 G01 Z-7.500 F100.0
N2840 G02 X61.0000 Y8.5000 Z-7.5000 I0.0000 J0.5000 F400.0
N2850 G01 Z-9.000 F100.0
N2860 G02 X61.0000 Y8.5000 Z-9.0000 I0.0000 J0.5000 F400.0
N2870 G01 Z-10.000 F100.0
N2880 G02 X61.0000 Y8.5000 Z-10.0000 I0.0000 J0.5000 F400.0
N2890 G00 Z20.0000
N2900 X9.0000
N2910 G01 Z-1.500 F100.0
N2920 G02 X9.0000 Y8.5000 Z-1.5000 I0.0000 J0.5000 F400.0
N2930 G01 Z-3.000 F100.0
N2940 G02 X9.0000 Y8.5000 Z-3.0000 I0.0000 J0.5000 F400.0
N2950 G01 Z-4.500 F100.0
N2960 G02 X9.0000 Y8.5000 Z-4.5000 I0.0000 J0.5000 F400.0
N2970 G01 Z-6.000 F100.0
N2980 G02 X9.0000 Y8.5000 Z-6.0000 I0.0000 J0.5000 F400.0
N2990 G01 Z-7.500 F100.0
N3000 G02 X9.0000 Y8.5000 Z-7.5000 I0.0000 J0.5000 F400.0
N3010 G01 Z-9.000 F100.0
N3020 G02 X9.0000 Y8.5000 Z-9.0000 I0.0000 J0.5000 F400.0
N3030 G01 Z-10.000 F100.0
N3040 G02 X9.0000 Y8.5000 Z-10.0000 I0.0000 J0.5000 F400.0
N3050 (Operation: Outside Offset, AUSSEN, T1: Mill/router, 3 mm diameter, 10 mm Deep)
N3060 G00 Z20.0000
N3070 X69.8562 Y91.5000
N3080 G01 Z-1.500 F100.0
N3090 X40.5000 F400.0
N3100 X35.5000
N3110 X8.5000
N3120 X3.5000
N3130 X0.0000
N3140 G03 X-1.5000 Y90.0000 Z-1.5000 I0.0000 J-1.5000
N3150 G01 Y66.5000 Z-1.500
N3160 Y61.5000
N3170 Y34.5000
N3180 Y29.5000
N3190 Y2.5000
N3200 Y0.0000
N3210 G03 X0.0000 Y-1.5000 Z-1.5000 I1.5000 J0.0000
N3220 G01 X0.1438 Z-1.500
N3230 X29.5000
N3240 X34.5000
N3250 X61.5000
N3260 X66.5000
N3270 X70.0000
N3280 G03 X71.5000 Y0.0000 Z-1.5000 I0.0000 J1.5000
N3290 G01 Y23.5000 Z-1.500
N3300 Y28.5000
N3310 Y55.5000
N3320 Y60.5000
N3330 Y87.5000
N3340 Y90.0000
N3350 G03 X70.0000 Y91.5000 Z-1.5000 I-1.5000 J0.0000
N3360 G01 X69.8562 Z-1.500
N3370 Z-3.000 F100.0
N3380 X40.5000 F400.0
N3390 X35.5000
N3400 X8.5000
N3410 X3.5000
N3420 X0.0000
N3430 G03 X-1.5000 Y90.0000 Z-3.0000 I0.0000 J-1.5000
N3440 G01 Y66.5000 Z-3.000
N3450 Y61.5000
N3460 Y34.5000
N3470 Y29.5000
N3480 Y2.5000
N3490 Y0.0000
N3500 G03 X0.0000 Y-1.5000 Z-3.0000 I1.5000 J0.0000
N3510 G01 X0.1438 Z-3.000
N3520 X29.5000
N3530 X34.5000
N3540 X61.5000
N3550 X66.5000
N3560 X70.0000
N3570 G03 X71.5000 Y0.0000 Z-3.0000 I0.0000 J1.5000
N3580 G01 Y23.5000 Z-3.000
N3590 Y28.5000
N3600 Y55.5000
N3610 Y60.5000
N3620 Y87.5000
N3630 Y90.0000
N3640 G03 X70.0000 Y91.5000 Z-3.0000 I-1.5000 J0.0000
N3650 G01 X69.8562 Z-3.000
N3660 Z-4.500 F100.0
N3670 X40.5000 F400.0
N3680 X35.5000
N3690 X8.5000
N3700 X3.5000
N3710 X0.0000
N3720 G03 X-1.5000 Y90.0000 Z-4.5000 I0.0000 J-1.5000
N3730 G01 Y66.5000 Z-4.500
N3740 Y61.5000
N3750 Y34.5000
N3760 Y29.5000
N3770 Y2.5000
N3780 Y0.0000
N3790 G03 X0.0000 Y-1.5000 Z-4.5000 I1.5000 J0.0000
N3800 G01 X0.1438 Z-4.500
N3810 X29.5000
N3820 X34.5000
N3830 X61.5000
N3840 X66.5000
N3850 X70.0000
N3860 G03 X71.5000 Y0.0000 Z-4.5000 I0.0000 J1.5000
N3870 G01 Y23.5000 Z-4.500
N3880 Y28.5000
N3890 Y55.5000
N3900 Y60.5000
N3910 Y87.5000
N3920 Y90.0000
N3930 G03 X70.0000 Y91.5000 Z-4.5000 I-1.5000 J0.0000
N3940 G01 X69.8562 Z-4.500
N3950 Z-6.000 F100.0
N3960 X40.5000 F400.0
N3970 X35.5000
N3980 X8.5000
N3990 X3.5000
N4000 X0.0000
N4010 G03 X-1.5000 Y90.0000 Z-6.0000 I0.0000 J-1.5000
N4020 G01 Y66.5000 Z-6.000
N4030 Y61.5000
N4040 Y34.5000
N4050 Y29.5000
N4060 Y2.5000
N4070 Y0.0000
N4080 G03 X0.0000 Y-1.5000 Z-6.0000 I1.5000 J0.0000
N4090 G01 X0.1438 Z-6.000
N4100 X29.5000
N4110 X34.5000
N4120 X61.5000
N4130 X66.5000
N4140 X70.0000
N4150 G03 X71.5000 Y0.0000 Z-6.0000 I0.0000 J1.5000
N4160 G01 Y23.5000 Z-6.000
N4170 Y28.5000
N4180 Y55.5000
N4190 Y60.5000
N4200 Y87.5000
N4210 Y90.0000
N4220 G03 X70.0000 Y91.5000 Z-6.0000 I-1.5000 J0.0000
N4230 G01 X69.8562 Z-6.000
N4240 Z-7.500 F100.0
N4250 X40.5000 F400.0
N4260 X35.5000
N4270 X8.5000
N4280 X3.5000
N4290 X0.0000
N4300 G03 X-1.5000 Y90.0000 Z-7.5000 I0.0000 J-1.5000
N4310 G01 Y66.5000 Z-7.500
N4320 Y61.5000
N4330 Y34.5000
N4340 Y29.5000
N4350 Y2.5000
N4360 Y0.0000
N4370 G03 X0.0000 Y-1.5000 Z-7.5000 I1.5000 J0.0000
N4380 G01 X0.1438 Z-7.500
N4390 X29.5000
N4400 X34.5000
N4410 X61.5000
N4420 X66.5000
N4430 X70.0000
N4440 G03 X71.5000 Y0.0000 Z-7.5000 I0.0000 J1.5000
N4450 G01 Y23.5000 Z-7.500
N4460 Y28.5000
N4470 Y55.5000
N4480 Y60.5000
N4490 Y87.5000
N4500 Y90.0000
N4510 G03 X70.0000 Y91.5000 Z-7.5000 I-1.5000 J0.0000
N4520 G01 X69.8562 Z-7.500
N4530 Z-9.000 F100.0
N4540 X40.5000 F400.0
N4550 G00 Z-8.0000
N4560 G01 X35.5000 Z-8.000
N4570 Z-9.000 F100.0
N4580 X8.5000 F400.0
N4590 G00 Z-8.0000
N4600 G01 X3.5000 Z-8.000
N4610 Z-9.000 F100.0
N4620 X0.0000 F400.0
N4630 G03 X-1.5000 Y90.0000 Z-9.0000 I0.0000 J-1.5000
N4640 G01 Y66.5000 Z-9.000
N4650 G00 Z-8.0000
N4660 G01 Y61.5000 Z-8.000
N4670 Z-9.000 F100.0
N4680 Y34.5000 F400.0
N4690 G00 Z-8.0000
N4700 G01 Y29.5000 Z-8.000
N4710 Z-9.000 F100.0
N4720 Y2.5000 F400.0
N4730 G00 Z-8.0000
N4740 G01 Y0.0000 Z-8.000
N4750 G03 X0.0000 Y-1.5000 Z-8.0000 I1.5000 J0.0000
N4760 G01 X0.1438 Z-8.000
N4770 Z-9.000 F100.0
N4780 X29.5000 F400.0
N4790 G00 Z-8.0000
N4800 G01 X34.5000 Z-8.000
N4810 Z-9.000 F100.0
N4820 X61.5000 F400.0
N4830 G00 Z-8.0000
N4840 G01 X66.5000 Z-8.000
N4850 Z-9.000 F100.0
N4860 X70.0000 F400.0
N4870 G03 X71.5000 Y0.0000 Z-9.0000 I0.0000 J1.5000
N4880 G01 Y23.5000 Z-9.000
N4890 G00 Z-8.0000
N4900 G01 Y28.5000 Z-8.000
N4910 Z-9.000 F100.0
N4920 Y55.5000 F400.0
N4930 G00 Z-8.0000
N4940 G01 Y60.5000 Z-8.000
N4950 Z-9.000 F100.0
N4960 Y87.5000 F400.0
N4970 G00 Z-8.0000
N4980 G01 Y90.0000 Z-8.000
N4990 G03 X70.0000 Y91.5000 Z-8.0000 I-1.5000 J0.0000
N5000 G01 X69.8562 Z-8.000
N5010 Z-10.000 F100.0
N5020 X40.5000 F400.0
N5030 G00 Z-8.0000
N5040 G01 X35.5000 Z-8.000
N5050 Z-10.000 F100.0
N5060 X8.5000 F400.0
N5070 G00 Z-8.0000
N5080 G01 X3.5000 Z-8.000
N5090 Z-10.000 F100.0
N5100 X0.0000 F400.0
N5110 G03 X-1.5000 Y90.0000 Z-10.0000 I0.0000 J-1.5000
N5120 G01 Y66.5000 Z-10.000
N5130 G00 Z-8.0000
N5140 G01 Y61.5000 Z-8.000
N5150 Z-10.000 F100.0
N5160 Y34.5000 F400.0
N5170 G00 Z-8.0000
N5180 G01 Y29.5000 Z-8.000
N5190 Z-10.000 F100.0
N5200 Y2.5000 F400.0
N5210 G00 Z-8.0000
N5220 G01 Y0.0000 Z-8.000
N5230 G03 X0.0000 Y-1.5000 Z-8.0000 I1.5000 J0.0000
N5240 G01 X0.1438 Z-8.000
N5250 Z-10.000 F100.0
N5260 X29.5000 F400.0
N5270 G00 Z-8.0000
N5280 G01 X34.5000 Z-8.000
N5290 Z-10.000 F100.0
N5300 X61.5000 F400.0
N5310 G00 Z-8.0000
N5320 G01 X66.5000 Z-8.000
N5330 Z-10.000 F100.0
N5340 X70.0000 F400.0
N5350 G03 X71.5000 Y0.0000 Z-10.0000 I0.0000 J1.5000
N5360 G01 Y23.5000 Z-10.000
N5370 G00 Z-8.0000
N5380 G01 Y28.5000 Z-8.000
N5390 Z-10.000 F100.0
N5400 Y55.5000 F400.0
N5410 G00 Z-8.0000
N5420 G01 Y60.5000 Z-8.000
N5430 Z-10.000 F100.0
N5440 Y87.5000 F400.0
N5450 G00 Z-8.0000
N5460 G01 Y90.0000 Z-8.000
N5470 G03 X70.0000 Y91.5000 Z-8.0000 I-1.5000 J0.0000
N5480 G01 X69.8562 Z-8.000
N5490 G00 Z20.0000
N5500 M05
N5510 M05 M30
